X: 716
T: Ey ki Dostân Âşıkân
C: Damat İbrahim Paşa
O: Turkey
F: http://compmusic.upf.edu/node/140
N: hicaz-humayun--kar--hafif--ey_ki_dostan--makbul_ibrahim_pasa
N: makam= hicaz-humayun
N: form= kar
N: usul= hafif = 32/4
M: 32/4
L: 1/16
K: C _7/8B ^c  
Q: 1/4=54
%%MIDI tuningsystem comma53
d6 c2 d6 c2 e2 d2 e2 d2 c2 d8 z2 d4 f2 e2 d2 c2 B2 d2 c3 B c2 d2 c2 d2  | 
w:   | 
c2 B2 e2 d3 c B2 A2 A4 B2 c2 d4 e2 d2 c2  | \
w:   | 
d8 z2 d4 f2 e2 d2 c2 B2 d2 c3 B c2  | 
w:   | 
d2 c2 d2 c2 B2 e2 d3 c B2 A2 A4 B2 c2 d4  | \
w:   | 
e2 d2 c2 d4 z4 e4 g2 f2 e2 d2 c2 B4  | 
w:   | 
d c d e d2 c2 c2 B2 c2 B2 A2 A4 z4 e2 d2 e2  | \
w:   | 
d2 c2 c2 B3 A G4 A2 B2 c2 d2 c2 d2 c B B4  | 
w:   | 
B2 d2 c2 B2 A2 A4 A4 z4 z4 =B2 c2 B2  | \
w:   | 
A2 =B2 c2 d2 f2 e2 d2 c2 d2 c2 d2 c2 B2 B2 c2 B2  | 
w:   | 
A2 =B2 c2 d2 f2 e2 d2 c2 d2 c2 d2 e2 d2 d4 z4 G4 G2 d2 d4 e2 d2 c2 d8 z2 d4 f2 e2 d2 c2 _7/8B2 d2 c3 B c2 d2 c2 d2 c2 B2 e2  | 
w:   | 
d3 c B2 A2 A4 B2 c2 d4 e2 d2 c2 d4 z4 e4 g2 f2 e2 d2 c2 B4 d c d e d2 c2 c2 B2  | 
w:   | 
c2 B2 A2 A4 z4 e2 d2 e2 d2 c2 c2 B3 A G4 A2 B2 c2 d2 c2 d2 c B B4 B2 d2 c2 B2 A2 A4 A4 z4 z4 d6 c2 d6 c2 =B6 d2 d4 z4 e2 d2 c2 d2 e4 g2 f2 e2  | 
w:   | 
e2 d2 c2 d2 c2 d2 e2 d2 d4 z4 G4 d4  | \
w:   | 
d4 e2 d2 c2 d8 z4 c2 d2 e4 f4 f2 e2 d2 c2 B2 c2 d e d c c8 c4 d4 d2 c2 B2 A2 B4 c4 d8 c2 d2 e2  | 
w:   | 
d2 d8 z8 z8 d2 e2 d2  | c2 d2 e2 d2 c2 d4 e4 z4 d2 c2 B2 c2 d e  | 
w:   |   | 
d c c4 c4 c4 d4 d2 c2 B2 A2 A4 d4 d4 e2 d2 c2 d8 z4 c2 d2 e4  | 
w:   | 
d2 =c2 g2 f4 e2 e3 d c2 d2 d2 ^c4 _1/4B2 z2 c d  | \
w:   | 
c2 d2 d2 =c2 d2 c2 _1/4B2 z2 d4 d2 d4 e2 d2 ^c2  | 
w:   | 
B4 A4 B2 A2 B2 d2 c2 B2 c2 B2 A2 A8 A4 A2 B2 d3 c B2 A2 G2 A4 B2 c4 e2  | 
w:   | 
d2 c2 B4 e2 f2 e2 d2 e2 d2 c2 c2 B2 c2 B2 A2  | \
w:   | 
A4 z4 A2 B2 e2 d2 c2 B2 A2 G4 A2 B2 c2  | 
w:   | 
d2 c2 d2 c B B4 B2 d2 c2 B2 A2 A4 A4 z4 z4 =B2 c2 B2 A2 B2 c2 d2 f2 e2 d2 c2 d2 c2  | 
w:   | 
d2 c2 =B2 B2 c2 B2 A2 B2 c2 d2 f2 e2 d2 c2 d2 c2  | \
w:   | 
d2 e2 d2 d4 z4 G4 G2 d2 d4 e2 d2 c2  | 
w:   | 
d8 z2 d4 f2 e2 d2 c2 B2 d2 c3 B c2  | \
w:   | 
d2 c2 d2 c2 B2 e2 d3 c B2 A2 A4 B2 c2 d4  | 
w:   | 
e2 d2 c2 d4 z4 e4 g2 f2 e2 d2 c2 B4  | \
w:   | 
d c d e d2 c2 c2 B2 c2 B2 A2 A4 z4 e2 d2 e2  | 
w:   | 
d2 c2 c2 B2 A2 G4 A2 B2 c2 d2 c2 d2 c B B4  | \
w:   | 
B2 d2 c2 B2 A2 A4 A4 z4 z4 d6  | 
w:   | 
c2 d6 c2 e2 d2 e2 d2 c2 d8 z2 d4 f2 e2 d2 c2 B2 d2 c3 B c2 d2 c2 d2 c2 B2 e2  | 
w:   | 
d3 c B2 A2 A4 B2 c2 d4 e2 d2 c2 d8 z2 d4 f2 e2 d2 c2 B2 d2 c3 B c2 d2 c2 d2  | 
w:   | 
c2 B2 e2 d3 c B2 A2 A4 B2 c2 d4 e2 d2 c2  | \
w:   | 
d4 z4 e4 g2 f2 e2 d2 c2 B4 d c d e d2  | 
w:   | 
c2 c2 B2 c2 B2 A2 A4 z4 e2 d2 e2 d2 c2 c2  | \
w:   | 
B3 A G4 A2 B2 c2 d2 c2 d2 c B B4 B2 d2 c2  | 
w:   | 
B2 A2 A4 A4 z4 z4 g6 ^f2 g6 f2 e4 g4 g4 z4 a3 g f2 g2 a2 =c'2  | \
w:   | 
_1/4b2 a2 a3 g ^f2 g2 f2 g2 a2 g2 g4 z4 f2 g2  | 
w:   | 
^f2 e2 f2 g2 f2 e2 g2 f3 e f2 g2 f2 z2 e2 f2 g4 a4 g4 a2 g2 f2 e4 d2 =f2 e3 d c2 d2  | 
w:   | 
c2 d2 e2 d2 d4 z4 e2 d2 c2 d2 e8  | \
w:   | 
e4 g4 z2 ^f g f2 e2 e2 d2 e2 f2 g4 z4  | 
w:   | 
g2 a2 g2 ^f2 g2 a2 g2 f2 a g f g a4 z4 f2 g2  | \
w:   | 
^f2 a2 g2 f2 e2 e4 e4 z4 z4 e2 f2 e2  | 
w:   | 
d2 e2 ^f2 g2 b2 a2 g2 f2 g2 f2 g2 f2 e2 e2 f2 e2  | \
w:   | 
d2 e2 ^f2 g2 b2 a2 g2 f2 g2 f2 g2 a2 g2 g4 z4 d4 d2 g2 g4 a2 g2 f2 g8 z2 g4 _b2 a2 g2 f2 _7/8e2 g2 f3 e f2 g2 f2 g2 f2 e2 g3 f e2 d2 d4 e2 f2 g4 a2 g2 f2 g4 z4  | 
w:   | 
a4 =c'2 _b2 a2 g2 ^f2 _7/8e4 g f g a g2 f2 f2 e2 f2  | \
w:   | 
_7/8e2 d2 d4 z4 a2 g2 a2 g2 ^f2 e2 d2 c4 d2  | 
w:   | 
_7/8e2 ^f2 g2 f2 f e e4 e2 g2 f2 e2 d2 d4 d4  | \
w:   | 
z4 z4 d8 A4 d4 d4 e2 d2  | 
w:   | 
c2 d8 z4 c2 d2 e4 d2 =c2 g2 f4  | \
w:   | 
e2 e3 d =c2 d2 d2 ^c4 _1/4B2 z2 c d c2 d2 d2 =c2 d2  | 
w:   | 
=c2 _1/4B2 z2 d4 d2 d4 e2 d2 ^c2 _7/8B4 A4 B2  | \
w:   | 
A2 B2 d2 c2 B2 B2 A2 A8 z4 A2 B2 e2  | 
w:   | 
d2 c2 B2 A2 G2 A4 B2 c4 e2 d2 c2 B4 e2  | \
w:   | 
f2 e2 d2 e2 d2 c2 c2 B2 c2 B2 A2 A4 z4 A2  | 
w:   | 
B2 e2 d2 c2 B2 A2 G4 A2 B2 c2 d2 c2 d2 c B B4 B2 d2 c2 B2 A2 A4 A4 z4 z4 =B2 c2  | 
w:   | 
=B2 A2 B2 c2 d2 f2 e2 d2 c2 d2 c2 d2 c2 B2 B2 c2  | \
w:   | 
=B2 A2 B2 c2 d2 f2 e2 d2 c2 d2 c2 d2 e2 d2 d4  | 
w:   | 
z4 G4 G2 d2 d4 e2 d2 c2 d8 z2  | d4 f2 e2 d2 c2 B2 d2 c3 B c2 d2 c2 d2 c2 B2  | 
w:   |   | 
e2 d3 c B2 A2 A4 B2 c2 d4 e2 d2 c2 d4  | \
w:   | 
z4 e4 g2 f2 e2 d2 c2 B4 d c d e d2 c2 c2  | 
w:   | 
B2 c2 B2 A2 A4 z4 e2 d2 e2 d2 c2 B2 A2 G4 A2 B2 c2 d2 c2 d2 c B B4 B2 d2 c2 B2 A2 A4 A4 z4 z4 d6 c2 d6 c2 e2  | 
w:   | 
d2 e2 d2 c2 d8 z2 d4 f2 e2 d2 c2 B2  | \
w:   | 
d2 c3 B c2 d2 c2 d2 c2 B2 e2 d3 c B2 A2 A4  | 
w:   | 
B2 c2 d4 e2 d2 c2 d8 z2 d4 f2 e2  | \
w:   | 
d2 c2 B2 d2 c3 B c2 d2 c2 d2 c2 B2 e2 d3 c B2  | 
w:   | 
A2 A4 B2 c2 d4 e2 d2 c2 d4 z4 e4  | \
w:   | 
g2 f2 e2 d2 c2 B4 d c d e d2 c2 c2 B2 c2 B2 A2  | 
w:   | 
A4 z4 e2 d2 e2 d2 c2 c2 B3 A G4 A2 B2  | \
w:   | 
c2 d2 c2 d2 c B B4 B2 d2 c2 B2 A2 A4 A4  | 
w:   | 
z4 z4 |


